remix/Buildings/community-fill.svg

<svg viewBox="0 0 24 24" fill="currentColor" xmlns="http://www.w3.org/2000/svg"><path d="M9 19H12V12.9416L8 9.45402L4 12.9416V19H7V15H9V19ZM21 21H3C2.44772 21 2 20.5523 2 20V12.4868C2 12.1978 2.12501 11.9229 2.34282 11.733L6 8.54435V4C6 3.44772 6.44772 3 7 3H21C21.5523 3 22 3.44772 22 4V20C22 20.5523 21.5523 21 21 21ZM16 11V13H18V11H16ZM16 15V17H18V15H16ZM16 7V9H18V7H16ZM12 7V9H14V7H12Z"/></svg>

<svg viewBox="0 0 24 24" xmlns="http://www.w3.org/2000/svg"><path fill="none" d="M0 0h24v24H0Z"/><path d="M9 19h3v-6.058l-4-3.49 -4 3.48v6.058h3v-4h2v4Zm12 2H3v0c-.56 0-1-.45-1-1v-7.513 0c-.01-.29.12-.57.34-.76l3.65-3.19V3.98v0c0-.56.44-1 1-1h14v0c.55 0 1 .44 1 1v16 0c0 .55-.45 1-1 1Zm-5-10v2h2v-2h-2Zm0 4v2h2v-2h-2Zm0-8v2h2V7h-2Zm-4 0v2h2V7h-2Z"/></svg>
